X:3420
T:Mazurka
M:3/4
O:France
R:Mazurka
Z:Richard Robinson 
%%TUNEURL: http://www.leeds.ac.uk/music/Info/RRTuneBk/gettune/000006c8.html
%%ID:000006c8
K:G
D2|G2G>B d>e|d2d2D2|G2G>A B>c|A4d2|\
c2c>B A>G|F2F2A2|D2E>F G>A|1B4:|2G4||
|:D2|B2^A2B2|G4D2|d2^c2d2|B4d2|g2f2e2|c4A2\
|1 f2e2c2|B4D2:|2 f2e2F2|G4||
